logos/udemy.svg

<?xml version="1.0" encoding="UTF-8"?>
<svg width="512px" height="193px" viewBox="0 0 512 193" version="1.1" xmlns="http://www.w3.org/2000/svg" xmlns:xlink="http://www.w3.org/1999/xlink" preserveAspectRatio="xMidYMid">
    <title>udemy</title>
    <g>
        <polygon fill="#A435F0" points="79.5391471 45.9232428 39.7639124 22.9616214 0 45.9232428 0 22.9616214 39.7695735 0 79.5448082 22.9616214 79.5448082 45.9232428"></polygon>
        <path d="M0,65.2051171 L20.8330293,65.2051171 L20.8330293,115.821453 C20.8330293,128.898707 30.5985117,135.273162 39.7695735,135.273162 C49.0198914,135.273162 58.7117789,128.728873 58.7117789,115.645957 L58.7117789,65.2051171 L79.5448082,65.2051171 L79.5448082,117.027277 C79.5448082,129.074203 75.7574994,138.36981 68.1828817,144.744264 C60.6026028,151.113057 51.1371612,154.215367 39.5940779,154.215367 C28.0623169,154.215367 18.5912142,151.118718 11.1920921,144.744264 C3.78730885,138.375471 0,129.425194 0,117.542442 L0,65.2051171 Z M259.654272,128.111808 C253.347752,133.727668 246.163753,136.478986 237.97207,136.478986 C223.026636,136.478986 213.006402,127.964618 211.874172,114.779801 L279.185237,114.779801 C279.185237,114.779801 279.638129,110.522617 279.638129,106.525846 C279.638129,94.1279287 275.675324,83.7963313 267.579881,75.3612189 C259.665594,66.9261065 249.339658,62.7934676 236.766245,62.7934676 C223.513495,62.7934676 212.661072,66.9261065 204.050464,75.3612189 C195.615351,83.7963313 191.312878,94.8129278 191.312878,108.592165 L191.312878,109.271503 C191.312878,122.875245 195.615351,133.722007 204.050464,141.81745 C212.485576,149.907232 223.677668,154.039871 237.28141,154.039871 C253.098661,154.039871 265.683396,147.801285 275.126193,137.045101 L259.654272,128.111808 Z M220.060194,85.8626508 C224.702336,82.2451764 230.391791,80.3543526 236.760584,80.3543526 C242.784047,80.3543526 247.777181,82.2451764 252.085315,86.0381464 C256.19531,89.4914475 258.41448,93.7316483 258.606959,98.6058978 L212.40632,98.6058978 C213.074336,93.5674749 215.621853,89.321613 220.065855,85.8683119 L220.060194,85.8626508 Z M469.365885,165.735806 C460.913789,185.691357 452.071074,192.479075 438.512621,192.479075 L429.115114,192.479075 L429.115114,174.012406 L436.712376,174.012406 C441.377163,174.012406 445.713603,172.25745 449.846242,162.724074 L453.978881,153.179377 L418.336286,65.2051171 L439.514645,65.2051171 L464.825643,128.5647 L490.827302,65.2051171 L512,65.2051171 L469.371546,165.735806 L469.365885,165.735806 Z M160.646432,31.9798322 L160.646432,73.0627923 C153.819086,66.9487511 143.19877,63.3086321 132.929446,63.3086321 C120.701363,63.3086321 110.375427,67.6111056 101.940315,76.3858869 C93.6750368,84.996495 89.5423978,95.6677613 89.5423978,108.580843 C89.5423978,121.499585 93.6750368,132.170852 101.940315,140.951294 C110.375427,149.561902 120.707024,153.870037 132.929446,153.870037 C147.025707,153.870037 155.936356,148.327772 160.646432,143.98567 L160.646432,151.973552 L181.309627,151.973552 L181.309627,31.9854933 L160.646432,31.9854933 L160.646432,31.9798322 Z M154.447474,127.528709 C149.45434,132.521843 143.085547,135.108988 135.680764,135.108988 C128.275981,135.108988 122.252518,132.521843 117.259385,127.528709 C112.447408,122.535576 110.030097,116.166783 110.030097,108.592165 C110.030097,101.011886 112.441747,94.6430933 117.259385,89.6499596 C122.252518,84.656826 128.275981,82.0753419 135.680764,82.0753419 C143.085547,82.0753419 149.45434,84.656826 154.447474,89.6499596 C159.610442,94.6430933 162.203249,101.011886 162.203249,108.592165 C162.203249,116.166783 159.610442,122.535576 154.447474,127.528709 Z M386.214925,63.4841278 C370.522219,63.4841278 362.364503,69.9944494 356.776949,76.2670028 C354.540795,72.0041574 348.245597,63.4841278 333.537931,63.4841278 C321.106047,63.4841278 313.78052,69.7680034 310.123417,74.2403114 L310.123417,65.2164394 L289.641379,65.2164394 L289.641379,151.984874 L310.123417,151.984874 L310.123417,102.053538 C310.123417,90.346281 317.358366,81.9111686 326.993642,81.9111686 C336.815736,81.9111686 342.493869,89.3159518 342.493869,101.193043 L342.493869,151.979213 L362.981568,151.979213 L362.981568,102.047877 C362.981568,90.1707854 370.03536,81.9055075 380.191462,81.9055075 C390.007895,81.9055075 395.686027,89.3102907 395.686027,101.181721 L395.686027,151.973552 L416.349222,151.973552 L416.349222,98.2605677 C416.349222,75.6386152 404.189074,63.4897889 386.214925,63.4897889 L386.214925,63.4841278 Z" fill="#000000"></path>
    </g>
</svg>

<svg width="512" height="193" xmlns="http://www.w3.org/2000/svg" preserveAspectRatio="xMidYMid">
	<path fill="#A435F0" d="M79.54 45.923 39.763 22.962 0 45.923V22.962L39.77 0l39.775 22.962v22.961z"/>
	<path d="M0 65.205h20.833v50.616c0 13.078 9.766 19.452 18.937 19.452 9.25 0 18.942-6.544 18.942-19.627v-50.44h20.833v51.821c0 12.047-3.788 21.343-11.362 27.717-7.58 6.37-17.046 9.471-28.589 9.471-11.532 0-21.003-3.096-28.402-9.47C3.787 138.374 0 129.424 0 117.541V65.205Zm259.654 62.907c-6.306 5.616-13.49 8.367-21.682 8.367-14.945 0-24.966-8.514-26.098-21.7h67.311s.453-4.256.453-8.253c0-12.398-3.963-22.73-12.058-31.165-7.914-8.435-18.24-12.568-30.814-12.568-13.253 0-24.105 4.133-32.716 12.568-8.435 8.435-12.737 19.452-12.737 33.231v.68c0 13.603 4.302 24.45 12.737 32.545 8.436 8.09 19.628 12.223 33.231 12.223 15.818 0 28.402-6.239 37.845-16.995l-15.472-8.933Zm-39.594-42.25c4.642-3.617 10.332-5.508 16.7-5.508 6.024 0 11.017 1.891 15.325 5.684 4.11 3.453 6.33 7.694 6.522 12.568h-46.2c.667-5.039 3.215-9.284 7.659-12.738l-.006-.005Zm249.306 79.874c-8.452 19.955-17.295 26.743-30.853 26.743h-9.398v-18.467h7.597c4.665 0 9.002-1.755 13.134-11.288l4.133-9.545-35.643-87.974h21.179l25.31 63.36 26.002-63.36H512l-42.628 100.53h-.006ZM160.646 31.98v41.083c-6.827-6.114-17.447-9.754-27.717-9.754-12.228 0-22.554 4.302-30.989 13.077-8.265 8.61-12.398 19.282-12.398 32.195 0 12.919 4.133 23.59 12.398 32.37 8.435 8.61 18.767 12.919 30.99 12.919 14.096 0 23.006-5.542 27.716-9.884v7.988h20.664V31.985h-20.664v-.005Zm-6.199 95.549c-4.993 4.993-11.361 7.58-18.766 7.58-7.405 0-13.428-2.587-18.422-7.58-4.812-4.993-7.229-11.362-7.229-18.937 0-7.58 2.412-13.949 7.23-18.942 4.993-4.993 11.016-7.575 18.42-7.575 7.406 0 13.774 2.582 18.767 7.575 5.163 4.993 7.756 11.362 7.756 18.942 0 7.575-2.593 13.944-7.756 18.937Zm231.768-64.045c-15.693 0-23.85 6.51-29.438 12.783-2.236-4.263-8.531-12.783-23.24-12.783-12.431 0-19.756 6.284-23.414 10.756v-9.024h-20.482v86.769h20.482v-49.931c0-11.708 7.235-20.143 16.87-20.143 9.823 0 15.5 7.405 15.5 19.282v50.786h20.489v-49.931c0-11.877 7.053-20.142 17.21-20.142 9.816 0 15.494 7.404 15.494 19.276v50.792h20.663V98.26c0-22.622-12.16-34.771-30.134-34.771v-.006Z"/>
</svg>
